X:3
L:1/8
M:4/4
K:Bb
 DGGF GA B2 | DGGB AF D2 | DGGF GABc | dcB AGF G2 G2 |
 dggf ga b2 | dggb af d2 | dggf ga b2 | dcB AGF G2 G2 ||
 cGGc BA G2 | GDDG FE D2 | cGGc BA G2 | gdcB AB G2 |
 cGGc BA G2 | CDEF CFED | CG,G,C B,A, G,2 | CDEF C2 C2 ||
 B,CDE FCFC | EFGA BdcB | FF A2 c2 A2 | BdcA B2 B2 :| 
 B,DFD CEGE | c2 G2 E2 C2 | B,DFD C2 C2 | c2 G2 E2 C2 | 
 ECCE ^F2 G2 | cGcG Bc G2 | ECDE C2 C2 |]
